X: 124
T: Calton Weaver
M:4/4
R:song
L:1/8
Z:added by Alf warnock alf0@rogers.com - www.alfwarnock.info/alfs
K:C
| "C"c2cd "Am"e2ec|"Dm"d2c2 "G7"B2G2|"C"c2cd "Am"e2g2|"Dm"a2a2 "G7"g3g|
"C"a2g2 "Am"e2c2|"Dm"d2c2 "G7"BAG2|"C"c2c2 "Am"e2c2|"Dm"d2B2 "G7"G4|
"C"c2c2 "Am"e2c2|"Dm"d2c2 "G7"BAG2|"C"c2c2 "Am"e2g2|"G7"e2d2 "C"c4|]

